X: 39151
T: Sweetness Of Mary, The
R: strathspey
M: 4/4
K: Fmajor
C/x// F>G|:A2 AG/F/ D2 DF/G/|A<c B<d c2 c> x/e|f>e d>c c>B A>B|c<f A<Fx// G> Cx// F>G|
A2x AG/F/ D2x DF/G/|A<c B<d c2 c>x/ e|f>e d>c c>B A>B|1 c<f A<Gx/ F2x F>G:|2 c<f A<Gx/ F>x cx// f>g||
|:a>c f<a g>c e<g|f>e d<f c4|d>c B>d c>B A>B|
[1 c<f A<F G> c f>g|a>c f<a g>c e<g|f>e d<f c4|d>c B>d c>B A>B|c<f A<G F> c f>g:|
[2 c<f A<Fx/ G> Cx// F>G|A2 AG/F/ D2 DF/G/|A<c B<d c2 c>x e|f>e d>c c>B A>B|c<f A<G F>||
K:Gmaj
Dx// G>A|:B2 BA/G/ E2 EG/A/|B<d c<e d2 d>x// f|g>f e>d d>c B>c|d<g B<Gx// A> Dx// G>A|
B2x BA/G/ E2x EG/A/|B<d c<e d2 d>x// f|g>f e>d d>c B>c|1 d<g B<Ax/ G2x G>A:|2 d<g B<Ax/ G>x dx// g>a||
|:b>d g<b a>d f<a|g>f e<g d4|e>d c>e d>c B>c|
[1 d<g B<G A> d g>a|b>d g<b a>d f<a|g>f e<g d4|e>d c>e d>c B>c|d<g B<A G> d g>a:|
[2 d<g B<Gx/ A> Dx// G>A|B2 BA/G/ E2 EG/A/|B<d c<e d2 d>x/ f|g>f e>d d>c B>c|d<g B<A G>||
K:Amaj
Ex// A>B|:c2 cB/A/ F2 FA/B/|c<e d<f e2 e>x// g|a>g f>e e>d c>d|e<a c<Ax// B> Ex// A>B|
c2x cB/A/ F2x FA/B/|c<e d<f e2 e>x// g|a>g f>e e>d c>d|1 e<a c<Bx// A2x A>B:|2 e<a c<Bx// A>x// ex// a>b||
|:c'>e a<c' b>e g<b|a>g f<a e4|f>e d>f e>d c>d|
[1 e<a c<A B> e a>b|c'>e a<c' b>e g<b|a>g f<a e4|f>e d>f e>d c>d|e<a c<B A> e a>b:|
[2 e<a c<A B> Ex// A>B|c2 cB/A/ F2 FA/B/|c<e d<f e2 e>x// g|a>g f>e e>d c>d|e<a c<B A>||

